svgs/substratum_lite.svg

<svg width="192" height="192" viewBox="0 0 192 192" fill="none" xmlns="http://www.w3.org/2000/svg"><path d="M30 38a8 8 0 0 1 8-8h36a8 8 0 0 1 8 8v98c0 14.359-11.64 26-26 26s-26-11.641-26-26V38Z" stroke="#000" stroke-width="12" stroke-linejoin="round"/><circle cx="56" cy="136" r="9" fill="#000"/><path fill-rule="evenodd" clip-rule="evenodd" d="m36 110.745-2.627 2.628c-12.497 12.496-12.497 32.758 0 45.254 12.496 12.497 32.758 12.497 45.254 0l69.297-69.296c5.467-5.467 5.467-14.332 0-19.8l-25.456-25.455c-5.467-5.467-14.332-5.467-19.799 0L76 70.746v16.97l35.154-35.155a2 2 0 0 1 2.829 0l25.456 25.456a2 2 0 0 1 0 2.829l-69.271 69.27c-.082.082-.164.164-.247.244A19.934 19.934 0 0 1 56 156a19.937 19.937 0 0 1-14.355-6.074A19.933 19.933 0 0 1 36 136v-25.255Z" fill="#000"/><path fill-rule="evenodd" clip-rule="evenodd" d="M36 111.019c-7.316 5.864-12 14.875-12 24.981 0 17.673 14.327 32 32 32h98c7.732 0 14-6.268 14-14v-36c0-7.732-6.268-14-14-14h-34.934l-10.642 12H154a2 2 0 0 1 2 2v36a2 2 0 0 1-2 2H56c-11.046 0-20-8.954-20-20v-24.981ZM76 116h6.5v-9l.194-3H76v12Z" fill="#000"/></svg>

<svg id="vector" xmlns="http://www.w3.org/2000/svg" width="192" height="192" viewBox="0 0 192 192"><path fill="#00000000" d="M30,38C30,33.582 33.582,30 38,30H74C78.418,30 82,33.582 82,38V136C82,150.359 70.359,162 56,162V162C41.641,162 30,150.359 30,136V38Z" stroke-linejoin="round" stroke-width="12" stroke="#000000" id="path_0"/><path fill="#000000" d="M56,136m-9,0a9,9 0,1 1,18 0a9,9 0,1 1,-18 0" id="path_1"/><path fill="#000000" d="M36,110.745L33.373,113.373C20.876,125.869 20.876,146.131 33.373,158.627C45.869,171.124 66.131,171.124 78.627,158.627L147.924,89.331C153.391,83.864 153.391,74.999 147.924,69.532L122.468,44.076C117.001,38.609 108.136,38.609 102.669,44.076L76,70.745V87.716L111.154,52.561C111.935,51.78 113.202,51.78 113.983,52.561L139.439,78.017C140.22,78.798 140.22,80.065 139.439,80.846L70.168,150.116C70.086,150.198 70.004,150.28 69.921,150.36C66.32,153.851 61.411,156 56,156C53.269,156 50.666,155.453 48.295,154.462C46.045,153.524 43.931,152.157 42.079,150.36C41.932,150.218 41.788,150.073 41.645,149.926C38.151,146.325 36,141.414 36,136V110.745Z" fill-rule="evenodd" id="path_2"/><path fill="#000000" d="M36,111.019C28.684,116.883 24,125.894 24,136C24,153.673 38.327,168 56,168L154,168C161.732,168 168,161.732 168,154V118C168,110.268 161.732,104 154,104L119.066,104L108.424,116L154,116C155.105,116 156,116.895 156,118V154C156,155.105 155.105,156 154,156L56.013,156C56.008,156 56.004,156 56,156C44.954,156 36,147.046 36,136C36,135.998 36,135.996 36,135.994V111.019ZM76,116H82.5V107L82.694,104H76V116Z" fill-rule="evenodd" id="path_3"/></svg>
